svg/fluentui-system-icons/ic_fluent_arrow_outline_up_right_24_filled.svg

<svg width="24" height="24" viewBox="0 0 24 24" fill="none" xmlns="http://www.w3.org/2000/svg">
<path d="M19.8325 2.01223C21.0745 1.87423 22.1239 2.92366 21.9859 4.16565L20.6457 16.2273C20.4652 17.8524 18.485 18.547 17.3288 17.3908L16.0617 16.1236L10.758 21.4273C9.99647 22.1888 8.7618 22.1888 8.00027 21.4273L2.57114 15.9982C1.80962 15.2366 1.80962 14.002 2.57114 13.2404L7.87481 7.93678L6.60738 6.66934C5.4512 5.51317 6.1458 3.53298 7.77089 3.35241L19.8325 2.01223Z" fill="#212121"/>
</svg>

<svg xmlns="http://www.w3.org/2000/svg" width="24" height="24"><path d="M19.832 2.012a1.95 1.95 0 0 1 2.154 2.154l-1.34 12.061c-.18 1.625-2.161 2.32-3.317 1.164l-1.267-1.267-5.304 5.303a1.95 1.95 0 0 1-2.758 0l-5.429-5.429a1.95 1.95 0 0 1 0-2.758l5.304-5.303-1.268-1.268c-1.156-1.156-.461-3.136 1.164-3.317l12.061-1.34Z"/></svg>
